img/google.svg

<svg xmlns="http://www.w3.org/2000/svg" fill="none" viewBox="0 0 160 48"><g clip-path="url(#a)"><path fill="#000" d="M154.074 48H5.92593C2.60741 48 0 45.24 0 42V6c0-3.36 2.72593-6 5.92593-6H154.074C157.393 0 160 2.76 160 6v36c0 3.36-2.607 6-5.926 6Z"/><path fill="#fff" stroke="#fff" stroke-miterlimit="10" stroke-width=".2" d="M56.1775 12.2412c0 .9601-.237 1.8-.8296 2.4001-.7111.7199-1.5408 1.08-2.6074 1.08-1.0667 0-1.8963-.3601-2.6074-1.08-.7111-.7201-1.0667-1.56-1.0667-2.64s.3556-1.92 1.0667-2.64005c.7111-.72 1.5407-1.08 2.6074-1.08.4741 0 .9481.12 1.4222.36.4741.24.8296.48 1.0667.84l-.5926.59995c-.4741-.59995-1.0667-.83995-1.8963-.83995-.7111 0-1.4222.24-1.8963.83995-.5926.48-.8296 1.2001-.8296 2.0401 0 .84.237 1.56.8296 2.04s1.1852.84 1.8963.84c.8296 0 1.4222-.24 2.0148-.84.3555-.36.5926-.84.5926-1.44h-2.6074v-.96h3.437v.4799ZM61.6286 9.24234h-3.2v2.27996h2.963v.84h-2.963v2.28h3.2v.96h-4.1481V8.40234h4.1481v.84ZM65.5411 15.6023h-.9482V9.24234h-2.0148v-.84h4.9778v.84h-2.0148v6.35996ZM70.9922 15.6023V8.40234h.9481v7.19996h-.9481ZM75.9708 15.6023h-.9482V9.24234h-2.0148v-.84h4.8593v.84h-2.0148v6.35996h.1185ZM87.2307 14.6413c-.7111.7199-1.5408 1.08-2.6074 1.08-1.0667 0-1.8963-.3601-2.6074-1.08-.7111-.7201-1.0667-1.56-1.0667-2.64s.3556-1.92 1.0667-2.64005c.7111-.72 1.5407-1.08 2.6074-1.08 1.0666 0 1.8963.36 2.6074 1.08.7111.72005 1.0666 1.56005 1.0666 2.64005s-.3555 1.9199-1.0666 2.64Zm-4.5037-.6001c.4741.48 1.1852.84 1.8963.84.7111 0 1.4222-.2399 1.8963-.84.474-.48.8296-1.2.8296-2.0399 0-.84-.237-1.56-.8296-2.04005-.4741-.48-1.1852-.84-1.8963-.84-.7111 0-1.4222.24-1.8963.84-.4741.48005-.8296 1.20005-.8296 2.04005 0 .8399.237 1.5599.8296 2.0399ZM89.6016 15.6023V8.40234h1.0666l3.4371 5.63996V8.40234h.9481v7.19996h-.9481l-3.6741-5.87996V15.6023h-.8296Z"/><path fill="#fff" d="M80.7109 26.1595c-2.8444 0-5.0963 2.16-5.0963 5.16 0 2.88 2.2519 5.16 5.0963 5.16 2.8445 0 5.0963-2.16 5.0963-5.16 0-3.12-2.2518-5.16-5.0963-5.16Zm0 8.16c-1.5407 0-2.8444-1.32-2.8444-3.12s1.3037-3.12 2.8444-3.12c1.5408 0 2.8445 1.2 2.8445 3.12 0 1.8-1.3037 3.12-2.8445 3.12Zm-11.0222-8.16c-2.8444 0-5.0963 2.16-5.0963 5.16 0 2.88 2.2519 5.16 5.0963 5.16 2.8445 0 5.0963-2.16 5.0963-5.16 0-3.12-2.2518-5.16-5.0963-5.16Zm0 8.16c-1.5407 0-2.8444-1.32-2.8444-3.12s1.3037-3.12 2.8444-3.12c1.5408 0 2.8445 1.2 2.8445 3.12 0 1.8-1.3037 3.12-2.8445 3.12Zm-13.1555-6.6v2.16h5.0963c-.1186 1.2-.5926 2.16-1.1852 2.76-.7111.72-1.8963 1.56-3.9111 1.56-3.2 0-5.5704-2.52-5.5704-5.76 0-3.24 2.4889-5.76 5.5704-5.76 1.6592 0 2.9629.72 3.9111 1.56l1.5407-1.56c-1.3037-1.2-2.963-2.16-5.3333-2.16-4.2667 0-7.9408 3.6-7.9408 7.92s3.6741 7.92 7.9408 7.92c2.3703 0 4.0296-.72 5.4518-2.28 1.4223-1.44 1.8963-3.48 1.8963-5.04 0-.48 0-.96-.1185-1.32h-7.3481Zm53.8078 1.68c-.475-1.2-1.66-3.24-4.267-3.24-2.608 0-4.741 2.04-4.741 5.16 0 2.88 2.133 5.16 4.978 5.16 2.252 0 3.674-1.44 4.148-2.28l-1.659-1.2c-.593.84-1.304 1.44-2.489 1.44-1.185 0-1.896-.48-2.489-1.56l6.756-2.88-.237-.6Zm-6.875 1.68c0-1.92 1.541-3 2.608-3 .83 0 1.659.48 1.896 1.08l-4.504 1.92Zm-5.5699 4.92h2.2519v-15h-2.2519v15Zm-3.5555-8.76c-.5926-.6-1.5408-1.2-2.726-1.2-2.4888 0-4.8592 2.28-4.8592 5.16 0 2.88 2.2518 5.04 4.8592 5.04 1.1852 0 2.1334-.6 2.6074-1.2h.1186v.72c0 1.92-1.0667 3-2.726 3-1.3037 0-2.2518-.96-2.4888-1.8l-1.8963.84c.5925 1.32 2.0148 3 4.5037 3 2.6074 0 4.7407-1.56 4.7407-5.28v-9.12h-2.1333v.84Zm-2.6074 7.08c-1.5408 0-2.8445-1.32-2.8445-3.12s1.3037-3.12 2.8445-3.12c1.5407 0 2.7259 1.32 2.7259 3.12s-1.1852 3.12-2.7259 3.12Zm28.9188-13.32h-5.334v15h2.252v-5.64h3.082c2.489 0 4.859-1.8 4.859-4.68s-2.37-4.68-4.859-4.68Zm.118 7.2h-3.2v-5.16h3.2c1.659 0 2.608 1.44 2.608 2.52-.119 1.32-1.067 2.64-2.608 2.64Zm13.63-2.16c-1.659 0-3.319.72-3.911 2.28l2.015.84c.474-.84 1.185-1.08 2.014-1.08 1.186 0 2.252.72 2.371 1.92v.12c-.356-.24-1.304-.6-2.252-.6-2.133 0-4.267 1.2-4.267 3.36 0 2.04 1.778 3.36 3.674 3.36 1.541 0 2.252-.72 2.845-1.44h.118v1.2h2.134v-5.76c-.237-2.64-2.252-4.2-4.741-4.2Zm-.237 8.28c-.711 0-1.778-.36-1.778-1.32 0-1.2 1.304-1.56 2.37-1.56.949 0 1.423.24 2.015.48-.237 1.44-1.422 2.4-2.607 2.4Zm12.444-7.92-2.489 6.48H144l-2.608-6.48h-2.37l3.911 9.12-2.252 5.04h2.252l6.045-14.16h-2.371Zm-19.911 9.6h2.252v-15h-2.252v15Z"/><path fill="url(#b)" d="M12.3256 9c-.3555.36-.474.96-.474 1.68V37.2c0 .72.237 1.32.5926 1.68l.1185.12L27.259 24.12v-.24L12.3256 9Z"/><path fill="url(#c)" d="m31.9999 29.1609-4.8593-4.92v-.36l4.8593-4.92.1185.12 5.8074 3.36c1.6593.96 1.6593 2.52 0 3.48l-5.9259 3.24Z"/><path fill="url(#d)" d="M32.1207 29.04 27.1429 24 12.3281 39c.5926.6 1.4222.6 2.4889.12l17.3037-10.08Z"/><path fill="url(#e)" d="M32.1207 18.9599 14.817 8.99994c-1.0667-.6-1.8963-.48-2.4889.12L27.1429 23.9999l4.9778-5.04Z"/><path fill="#000" d="m31.9983 28.9219-17.1852 9.84c-.9481.6-1.7778.48-2.3704 0l-.1185.12.1185.12c.5926.48 1.4223.6 2.3704 0l17.1852-10.08Z" opacity=".2"/><path fill="#000" d="M12.3256 38.7619c-.3555-.36-.474-.96-.474-1.68v.12c0 .72.237 1.32.5926 1.68v-.12h-.1186ZM37.9259 25.56 32 28.92l.1185.12 5.8074-3.36c.8297-.48 1.1852-1.08 1.1852-1.68 0 .6-.4741 1.08-1.1852 1.56Z" opacity=".12"/><path fill="#fff" d="m14.8145 9.1215 23.1111 13.32c.7111.48 1.1852.96 1.1852 1.56 0-.6-.3555-1.2-1.1852-1.68l-23.1111-13.32c-1.6592-.96-2.9629-.24-2.9629 1.68v.12c0-1.8 1.3037-2.64 2.9629-1.68Z" opacity=".25"/></g><defs><linearGradient id="b" x1="25.8363" x2="5.69895" y1="10.4518" y2="30.3405" gradientUnits="userSpaceOnUse"><stop stop-color="#00A0FF"/><stop offset=".00657" stop-color="#00A1FF"/><stop offset=".2601" stop-color="#00BEFF"/><stop offset=".5122" stop-color="#00D2FF"/><stop offset=".7604" stop-color="#00DFFF"/><stop offset="1" stop-color="#00E3FF"/></linearGradient><linearGradient id="c" x1="40.0998" x2="11.422" y1="24.0029" y2="24.0029" gradientUnits="userSpaceOnUse"><stop stop-color="#FFE000"/><stop offset=".4087" stop-color="#FFBD00"/><stop offset=".7754" stop-color="orange"/><stop offset="1" stop-color="#FF9C00"/></linearGradient><linearGradient id="d" x1="29.4266" x2="2.11882" y1="26.7554" y2="53.7262" gradientUnits="userSpaceOnUse"><stop stop-color="#FF3A44"/><stop offset="1" stop-color="#C31162"/></linearGradient><linearGradient id="e" x1="8.65073" x2="20.8448" y1=".2115" y2="12.255" gradientUnits="userSpaceOnUse"><stop stop-color="#32A071"/><stop offset=".0685" stop-color="#2DA771"/><stop offset=".4762" stop-color="#15CF74"/><stop offset=".8009" stop-color="#06E775"/><stop offset="1" stop-color="#00F076"/></linearGradient><clipPath id="a"><path fill="#fff" d="M0 0h160v48H0z"/></clipPath></defs></svg>

<svg width="160" height="48" viewBox="0 0 160 48" fill="none" xmlns="http://www.w3.org/2000/svg">
<g clip-path="url(#clip0_1_670)">
<path d="M154.074 48H5.92593C2.60741 48 0 45.24 0 42V6C0 2.64 2.72593 0 5.92593 0H154.074C157.393 0 160 2.76 160 6V42C160 45.36 157.393 48 154.074 48Z" fill="black"/>
<path d="M56.1775 12.2412C56.1775 13.2013 55.9405 14.0412 55.3479 14.6413C54.6368 15.3612 53.8071 15.7213 52.7405 15.7213C51.6738 15.7213 50.8442 15.3612 50.1331 14.6413C49.422 13.9212 49.0664 13.0813 49.0664 12.0013C49.0664 10.9213 49.422 10.0813 50.1331 9.36125C50.8442 8.64125 51.6738 8.28125 52.7405 8.28125C53.2146 8.28125 53.6886 8.40125 54.1627 8.64125C54.6368 8.88125 54.9923 9.12125 55.2294 9.48125L54.6368 10.0812C54.1627 9.48125 53.5701 9.24125 52.7405 9.24125C52.0294 9.24125 51.3183 9.48125 50.8442 10.0812C50.2516 10.5612 50.0146 11.2813 50.0146 12.1213C50.0146 12.9613 50.2516 13.6813 50.8442 14.1613C51.4368 14.6413 52.0294 15.0013 52.7405 15.0013C53.5701 15.0013 54.1627 14.7613 54.7553 14.1613C55.1108 13.8013 55.3479 13.3213 55.3479 12.7213H52.7405V11.7613H56.1775C56.1775 11.8813 56.1775 12.1212 56.1775 12.2412Z" fill="white" stroke="white" stroke-width="0.2" stroke-miterlimit="10"/>
<path d="M61.6286 9.24234H58.4286V11.5223H61.3916V12.3623H58.4286V14.6423H61.6286V15.6023H57.4805V8.40234H61.6286V9.24234Z" fill="white" stroke="white" stroke-width="0.2" stroke-miterlimit="10"/>
<path d="M65.5411 15.6023H64.5929V9.24234H62.5781V8.40234H67.5559V9.24234H65.5411V15.6023Z" fill="white" stroke="white" stroke-width="0.2" stroke-miterlimit="10"/>
<path d="M70.9922 15.6023V8.40234H71.9403V15.6023H70.9922Z" fill="white" stroke="white" stroke-width="0.2" stroke-miterlimit="10"/>
<path d="M75.9708 15.6023H75.0226V9.24234H73.0078V8.40234H77.8671V9.24234H75.8523V15.6023H75.9708Z" fill="white" stroke="white" stroke-width="0.2" stroke-miterlimit="10"/>
<path d="M87.2307 14.6413C86.5196 15.3612 85.6899 15.7213 84.6233 15.7213C83.5566 15.7213 82.727 15.3612 82.0159 14.6413C81.3048 13.9212 80.9492 13.0813 80.9492 12.0013C80.9492 10.9213 81.3048 10.0813 82.0159 9.36125C82.727 8.64125 83.5566 8.28125 84.6233 8.28125C85.6899 8.28125 86.5196 8.64125 87.2307 9.36125C87.9418 10.0813 88.2973 10.9213 88.2973 12.0013C88.2973 13.0813 87.9418 13.9212 87.2307 14.6413ZM82.727 14.0412C83.2011 14.5212 83.9122 14.8812 84.6233 14.8812C85.3344 14.8812 86.0455 14.6413 86.5196 14.0412C86.9936 13.5612 87.3492 12.8412 87.3492 12.0013C87.3492 11.1613 87.1122 10.4413 86.5196 9.96125C86.0455 9.48125 85.3344 9.12125 84.6233 9.12125C83.9122 9.12125 83.2011 9.36125 82.727 9.96125C82.2529 10.4413 81.8974 11.1613 81.8974 12.0013C81.8974 12.8412 82.1344 13.5612 82.727 14.0412Z" fill="white" stroke="white" stroke-width="0.2" stroke-miterlimit="10"/>
<path d="M89.6016 15.6023V8.40234H90.6682L94.1053 14.0423V12.6023V8.40234H95.0534V15.6023H94.1053L90.4312 9.72234V11.1623V15.6023H89.6016Z" fill="white" stroke="white" stroke-width="0.2" stroke-miterlimit="10"/>
<path d="M80.7109 26.1595C77.8665 26.1595 75.6146 28.3195 75.6146 31.3195C75.6146 34.1995 77.8665 36.4795 80.7109 36.4795C83.5554 36.4795 85.8072 34.3195 85.8072 31.3195C85.8072 28.1995 83.5554 26.1595 80.7109 26.1595ZM80.7109 34.3195C79.1702 34.3195 77.8665 32.9995 77.8665 31.1995C77.8665 29.3995 79.1702 28.0795 80.7109 28.0795C82.2517 28.0795 83.5554 29.2795 83.5554 31.1995C83.5554 32.9995 82.2517 34.3195 80.7109 34.3195ZM69.6887 26.1595C66.8443 26.1595 64.5924 28.3195 64.5924 31.3195C64.5924 34.1995 66.8443 36.4795 69.6887 36.4795C72.5332 36.4795 74.785 34.3195 74.785 31.3195C74.785 28.1995 72.5332 26.1595 69.6887 26.1595ZM69.6887 34.3195C68.148 34.3195 66.8443 32.9995 66.8443 31.1995C66.8443 29.3995 68.148 28.0795 69.6887 28.0795C71.2295 28.0795 72.5332 29.2795 72.5332 31.1995C72.5332 32.9995 71.2295 34.3195 69.6887 34.3195ZM56.5332 27.7195V29.8795H61.6295C61.5109 31.0795 61.0369 32.0395 60.4443 32.6395C59.7332 33.3595 58.548 34.1995 56.5332 34.1995C53.3332 34.1995 50.9628 31.6795 50.9628 28.4395C50.9628 25.1995 53.4517 22.6795 56.5332 22.6795C58.1924 22.6795 59.4961 23.3995 60.4443 24.2395L61.985 22.6795C60.6813 21.4795 59.022 20.5195 56.6517 20.5195C52.385 20.5195 48.7109 24.1195 48.7109 28.4395C48.7109 32.7595 52.385 36.3595 56.6517 36.3595C59.022 36.3595 60.6813 35.6395 62.1035 34.0795C63.5258 32.6395 63.9998 30.5995 63.9998 29.0395C63.9998 28.5595 63.9998 28.0795 63.8813 27.7195H56.5332ZM110.341 29.3995C109.866 28.1995 108.681 26.1595 106.074 26.1595C103.466 26.1595 101.333 28.1995 101.333 31.3195C101.333 34.1995 103.466 36.4795 106.311 36.4795C108.563 36.4795 109.985 35.0395 110.459 34.1995L108.8 32.9995C108.207 33.8395 107.496 34.4395 106.311 34.4395C105.126 34.4395 104.415 33.9595 103.822 32.8795L110.578 29.9995L110.341 29.3995ZM103.466 31.0795C103.466 29.1595 105.007 28.0795 106.074 28.0795C106.904 28.0795 107.733 28.5595 107.97 29.1595L103.466 31.0795ZM97.8961 35.9995H100.148V20.9995H97.8961V35.9995ZM94.3406 27.2395C93.748 26.6395 92.7998 26.0395 91.6146 26.0395C89.1258 26.0395 86.7554 28.3195 86.7554 31.1995C86.7554 34.0795 89.0072 36.2395 91.6146 36.2395C92.7998 36.2395 93.748 35.6395 94.222 35.0395H94.3406V35.7595C94.3406 37.6795 93.2739 38.7595 91.6146 38.7595C90.3109 38.7595 89.3628 37.7995 89.1258 36.9595L87.2295 37.7995C87.822 39.1195 89.2443 40.7995 91.7332 40.7995C94.3406 40.7995 96.4739 39.2395 96.4739 35.5195V26.3995H94.3406V27.2395ZM91.7332 34.3195C90.1924 34.3195 88.8887 32.9995 88.8887 31.1995C88.8887 29.3995 90.1924 28.0795 91.7332 28.0795C93.2739 28.0795 94.4591 29.3995 94.4591 31.1995C94.4591 32.9995 93.2739 34.3195 91.7332 34.3195ZM120.652 20.9995H115.318V35.9995H117.57V30.3595H120.652C123.141 30.3595 125.511 28.5595 125.511 25.6795C125.511 22.7995 123.141 20.9995 120.652 20.9995ZM120.77 28.1995H117.57V23.0395H120.77C122.429 23.0395 123.378 24.4795 123.378 25.5595C123.259 26.8795 122.311 28.1995 120.77 28.1995ZM134.4 26.0395C132.741 26.0395 131.081 26.7595 130.489 28.3195L132.504 29.1595C132.978 28.3195 133.689 28.0795 134.518 28.0795C135.704 28.0795 136.77 28.7995 136.889 29.9995V30.1195C136.533 29.8795 135.585 29.5195 134.637 29.5195C132.504 29.5195 130.37 30.7195 130.37 32.8795C130.37 34.9195 132.148 36.2395 134.044 36.2395C135.585 36.2395 136.296 35.5195 136.889 34.7995H137.007V35.9995H139.141V30.2395C138.904 27.5995 136.889 26.0395 134.4 26.0395ZM134.163 34.3195C133.452 34.3195 132.385 33.9595 132.385 32.9995C132.385 31.7995 133.689 31.4395 134.755 31.4395C135.704 31.4395 136.178 31.6795 136.77 31.9195C136.533 33.3595 135.348 34.3195 134.163 34.3195ZM146.607 26.3995L144.118 32.8795H144L141.392 26.3995H139.022L142.933 35.5195L140.681 40.5595H142.933L148.978 26.3995H146.607ZM126.696 35.9995H128.948V20.9995H126.696V35.9995Z" fill="white"/>
<path d="M12.3256 9C11.9701 9.36 11.8516 9.96 11.8516 10.68V37.2C11.8516 37.92 12.0886 38.52 12.4442 38.88L12.5627 39L27.259 24.12V24V23.88L12.3256 9Z" fill="url(#paint0_linear_1_670)"/>
<path d="M31.9999 29.1609L27.1406 24.2409V24.0009V23.8809L31.9999 18.9609L32.1184 19.0809L37.9258 22.4409C39.5851 23.4009 39.5851 24.9609 37.9258 25.9209L31.9999 29.1609Z" fill="url(#paint1_linear_1_670)"/>
<path d="M32.1207 29.04L27.1429 24L12.3281 39C12.9207 39.6 13.7503 39.6 14.817 39.12L32.1207 29.04Z" fill="url(#paint2_linear_1_670)"/>
<path d="M32.1207 18.9599L14.817 8.99994C13.7503 8.39994 12.9207 8.51994 12.3281 9.11994L27.1429 23.9999L32.1207 18.9599Z" fill="url(#paint3_linear_1_670)"/>
<path opacity="0.2" d="M31.9983 28.9219L14.8131 38.7619C13.865 39.3619 13.0353 39.2419 12.4427 38.7619L12.3242 38.8819L12.4427 39.0019C13.0353 39.4819 13.865 39.6019 14.8131 39.0019L31.9983 28.9219Z" fill="black"/>
<path opacity="0.12" d="M12.3256 38.7619C11.9701 38.4019 11.8516 37.8019 11.8516 37.0819V37.2019C11.8516 37.9219 12.0886 38.5219 12.4442 38.8819V38.7619H12.3256Z" fill="black"/>
<path opacity="0.12" d="M37.9259 25.56L32 28.92L32.1185 29.04L37.9259 25.68C38.7556 25.2 39.1111 24.6 39.1111 24C39.1111 24.6 38.637 25.08 37.9259 25.56Z" fill="black"/>
<path opacity="0.25" d="M14.8145 9.1215L37.9256 22.4415C38.6367 22.9215 39.1108 23.4015 39.1108 24.0015C39.1108 23.4015 38.7553 22.8015 37.9256 22.3215L14.8145 9.0015C13.1553 8.0415 11.8516 8.7615 11.8516 10.6815V10.8015C11.8516 9.0015 13.1553 8.1615 14.8145 9.1215Z" fill="white"/>
</g>
<defs>
<linearGradient id="paint0_linear_1_670" x1="25.8363" y1="10.4518" x2="5.69895" y2="30.3405" gradientUnits="userSpaceOnUse">
<stop stop-color="#00A0FF"/>
<stop offset="0.00657445" stop-color="#00A1FF"/>
<stop offset="0.2601" stop-color="#00BEFF"/>
<stop offset="0.5122" stop-color="#00D2FF"/>
<stop offset="0.7604" stop-color="#00DFFF"/>
<stop offset="1" stop-color="#00E3FF"/>
</linearGradient>
<linearGradient id="paint1_linear_1_670" x1="40.0998" y1="24.0029" x2="11.422" y2="24.0029" gradientUnits="userSpaceOnUse">
<stop stop-color="#FFE000"/>
<stop offset="0.4087" stop-color="#FFBD00"/>
<stop offset="0.7754" stop-color="#FFA500"/>
<stop offset="1" stop-color="#FF9C00"/>
</linearGradient>
<linearGradient id="paint2_linear_1_670" x1="29.4266" y1="26.7554" x2="2.11882" y2="53.7262" gradientUnits="userSpaceOnUse">
<stop stop-color="#FF3A44"/>
<stop offset="1" stop-color="#C31162"/>
</linearGradient>
<linearGradient id="paint3_linear_1_670" x1="8.65073" y1="0.211499" x2="20.8448" y2="12.255" gradientUnits="userSpaceOnUse">
<stop stop-color="#32A071"/>
<stop offset="0.0685" stop-color="#2DA771"/>
<stop offset="0.4762" stop-color="#15CF74"/>
<stop offset="0.8009" stop-color="#06E775"/>
<stop offset="1" stop-color="#00F076"/>
</linearGradient>
<clipPath id="clip0_1_670">
<rect width="160" height="48" fill="white"/>
</clipPath>
</defs>
</svg>
